components/media/icons/svg/tailor-content.svg

<?xml version="1.0" encoding="utf-8"?>
<!-- Generator: Adobe Illustrator 19.2.0, SVG Export Plug-In . SVG Version: 6.00 Build 0)  -->
<svg version="1.1" id="Layer_1" xmlns="http://www.w3.org/2000/svg" xmlns:xlink="http://www.w3.org/1999/xlink" x="0px" y="0px"
	 viewBox="0 0 512 512" style="enable-background:new 0 0 512 512;" xml:space="preserve">
<title>Master_Icons</title>
<path d="M271.2,30.8c0,0,0.9-15.8-15.2-15.8c-16.4,0-15.2,15.8-15.2,15.8v38.9H0V133h28.8v211.9c0,16.7,20.7,29.7,37.4,29.7h174.6
	v97.8h-94.2v28.8h218.9v-28.8h-94.2v-97.8H461c16.7,0,22.2-13,22.2-29.7V133H512V69.7H271.2V30.8 M444.5,345.8H67.5V133h376.9
	L444.5,345.8"/>
</svg>

<svg xmlns="http://www.w3.org/2000/svg" width="512" height="512" viewBox="0 0 512 512"><title>Master_Icons</title><path d="M271.2,30.8S272.1,15,256,15s-15.2,15.8-15.2,15.8V69.7H0V133H28.8V344.9c0,16.7,20.7,29.7,37.4,29.7H240.8v97.8H146.6v28.8H365.4V472.4H271.2V374.6H461c16.7,0,22.2-13,22.2-29.7V133H512V69.7H271.2V30.8m0,0,173.3,315H67.5V133H444.5V345.8Z"/></svg>
